vendor/shopware/storefront/Resources/app/storefront/dist/assets/icon/default/ruler-pencil.svg

<svg xmlns="http://www.w3.org/2000/svg" width="24" height="24" viewBox="0 0 24 24">
  <path fill="#758CA3" fill-rule="evenodd" d="M11,18.4142136 L7.70710678,21.7071068 C7.5195704,21.8946432 7.26521649,22 7,22 L3,22 C2.44771525,22 2,21.5522847 2,21 L2,17 C2,16.7347835 2.10535684,16.4804296 2.29289322,16.2928932 L5.58578644,13 L1.29289322,8.70710678 C0.902368927,8.31658249 0.902368927,7.68341751 1.29289322,7.29289322 L7.29289322,1.29289322 C7.68341751,0.902368927 8.31658249,0.902368927 8.70710678,1.29289322 L13,5.58578644 L17.2928932,1.29289322 C17.6834175,0.902368927 18.3165825,0.902368927 18.7071068,1.29289322 L22.7071068,5.29289322 C23.0976311,5.68341751 23.0976311,6.31658249 22.7071068,6.70710678 L18.4142136,11 L22.7071068,15.2928932 C23.0976311,15.6834175 23.0976311,16.3165825 22.7071068,16.7071068 L16.7071068,22.7071068 C16.3165825,23.0976311 15.6834175,23.0976311 15.2928932,22.7071068 L11,18.4142136 Z M12.4142136,17 L13.5,18.0857864 L14.2928932,17.2928932 C14.6834175,16.9023689 15.3165825,16.9023689 15.7071068,17.2928932 C16.0976311,17.6834175 16.0976311,18.3165825 15.7071068,18.7071068 L14.9142136,19.5 L16,20.5857864 L20.5857864,16 L17,12.4142136 L12.4142136,17 Z M15.5,5.91421356 L4,17.4142136 L4,20 L6.58578644,20 L18.0857864,8.5 L15.5,5.91421356 Z M16.9142136,4.5 L19.5,7.08578644 L20.5857864,6 L18,3.41421356 L16.9142136,4.5 Z M11.5857864,7 L8,3.41421356 L3.41421356,8 L4.5,9.08578644 L5.29289322,8.29289322 C5.68341751,7.90236893 6.31658249,7.90236893 6.70710678,8.29289322 C7.09763107,8.68341751 7.09763107,9.31658249 6.70710678,9.70710678 L5.91421356,10.5 L7,11.5857864 L11.5857864,7 Z"/>
</svg>

<svg xmlns="http://www.w3.org/2000/svg" width="24" height="24" viewBox="0 0 24 24"><path fill="#758CA3" fill-rule="evenodd" d="m11 18.4142-3.2929 3.293A1 1 0 0 1 7 22H3c-.5523 0-1-.4477-1-1v-4a1 1 0 0 1 .2929-.7071L5.5858 13l-4.293-4.2929c-.3904-.3905-.3904-1.0237 0-1.4142l6-6c.3906-.3905 1.0238-.3905 1.4143 0L13 5.5858l4.2929-4.293c.3905-.3904 1.0237-.3904 1.4142 0l4 4c.3905.3906.3905 1.0238 0 1.4143L18.4142 11l4.293 4.2929c.3904.3905.3904 1.0237 0 1.4142l-6 6c-.3906.3905-1.0238.3905-1.4143 0L11 18.4142zM12.4142 17 13.5 18.0858l.7929-.793c.3905-.3904 1.0237-.3904 1.4142 0 .3905.3906.3905 1.0238 0 1.4143l-.7929.7929L16 20.5858 20.5858 16 17 12.4142 12.4142 17zM15.5 5.9142 4 17.4142V20h2.5858l11.5-11.5L15.5 5.9142zM16.9142 4.5 19.5 7.0858 20.5858 6 18 3.4142 16.9142 4.5zM11.5858 7 8 3.4142 3.4142 8 4.5 9.0858l.7929-.793c.3905-.3904 1.0237-.3904 1.4142 0 .3905.3906.3905 1.0238 0 1.4143l-.7929.7929L7 11.5858 11.5858 7z"/></svg>
